polaris-icons/icons/new-icons/ImageWithTextMajor.svg

<svg width="20" height="20" viewBox="0 0 20 20" fill="none" xmlns="http://www.w3.org/2000/svg">
<path fill-rule="evenodd" clip-rule="evenodd" d="M5.5 3.5C4.39543 3.5 3.5 4.39543 3.5 5.5V8.5C3.5 9.60457 4.39543 10.5 5.5 10.5H8.5C9.60457 10.5 10.5 9.60457 10.5 8.5V5.5C10.5 4.39543 9.60457 3.5 8.5 3.5H5.5ZM8.5 5H5.5C5.22386 5 5 5.22386 5 5.5V8.5C5 8.77614 5.22386 9 5.5 9H8.5C8.77614 9 9 8.77614 9 8.5V5.5C9 5.22386 8.77614 5 8.5 5Z" fill="#4A4A4A"/>
<path d="M3.5 15.75C3.5 15.3358 3.83579 15 4.25 15H12.75C13.1642 15 13.5 15.3358 13.5 15.75C13.5 16.1642 13.1642 16.5 12.75 16.5H4.25C3.83579 16.5 3.5 16.1642 3.5 15.75Z" fill="#4A4A4A"/>
<path d="M4.25 11.5C3.83579 11.5 3.5 11.8358 3.5 12.25C3.5 12.6642 3.83579 13 4.25 13H15.75C16.1642 13 16.5 12.6642 16.5 12.25C16.5 11.8358 16.1642 11.5 15.75 11.5H4.25Z" fill="#4A4A4A"/>
<path d="M11.25 8.75C11.25 8.33579 11.5858 8 12 8H15.75C16.1642 8 16.5 8.33579 16.5 8.75C16.5 9.16421 16.1642 9.5 15.75 9.5H12C11.5858 9.5 11.25 9.16421 11.25 8.75Z" fill="#4A4A4A"/>
<path d="M12 4.5C11.5858 4.5 11.25 4.83579 11.25 5.25C11.25 5.66421 11.5858 6 12 6H15.75C16.1642 6 16.5 5.66421 16.5 5.25C16.5 4.83579 16.1642 4.5 15.75 4.5H12Z" fill="#4A4A4A"/>
</svg>

<svg viewBox="0 0 20 20" xmlns="http://www.w3.org/2000/svg"><path fill-rule="evenodd" d="M5.5 3.5a2 2 0 0 0-2 2v3a2 2 0 0 0 2 2h3a2 2 0 0 0 2-2v-3a2 2 0 0 0-2-2h-3Zm3 1.5h-3a.5.5 0 0 0-.5.5v3a.5.5 0 0 0 .5.5h3a.5.5 0 0 0 .5-.5v-3a.5.5 0 0 0-.5-.5Z" fill="#5C5F62"/><path d="M3.5 15.75a.75.75 0 0 1 .75-.75h8.5a.75.75 0 0 1 0 1.5h-8.5a.75.75 0 0 1-.75-.75Z" fill="#5C5F62"/><path d="M4.25 11.5a.75.75 0 0 0 0 1.5h11.5a.75.75 0 0 0 0-1.5h-11.5Z" fill="#5C5F62"/><path d="M11.25 8.75a.75.75 0 0 1 .75-.75h3.75a.75.75 0 0 1 0 1.5h-3.75a.75.75 0 0 1-.75-.75Z" fill="#5C5F62"/><path d="M12 4.5a.75.75 0 0 0 0 1.5h3.75a.75.75 0 0 0 0-1.5h-3.75Z" fill="#5C5F62"/></svg>
